src/icons/svg/write_index.svg

<?xml version="1.0" encoding="UTF-8"?>
<svg width="24px" height="24px" viewBox="0 0 24 24" version="1.1" xmlns="http://www.w3.org/2000/svg" xmlns:xlink="http://www.w3.org/1999/xlink">
    <g stroke="none" stroke-width="1" fill="none" fill-rule="evenodd">
        <g transform="translate(-176.000000, -704.000000)" fill="#542DE0" fill-rule="nonzero">
            <g transform="translate(176.000000, 704.000000)">
                <path d="M22.9107692,4.90269231 L19.0892308,1.06269231 C17.6861538,-0.340384615 15.3969231,-0.340384615 13.9753846,1.06269231 L0.683076923,14.3734615 C0.24,14.835 0,15.4257692 0,16.035 L0,22.1457692 C0,23.3642308 0.627692308,23.9919231 1.84615385,23.9919231 L8.01230769,23.955 C8.64,23.955 9.23076923,23.6965385 9.65538462,23.2719231 L22.9107692,9.97961538 C24.3323077,8.595 24.3323077,6.30576923 22.9107692,4.90269231 Z M7.77230769,22.1273077 L1.84615385,22.1642308 L1.84615385,16.275 C1.84615385,16.1642308 1.88307692,16.0534615 1.90153846,15.9426923 C1.93846154,16.0719231 2.01230769,16.1826923 2.10461538,16.2934615 L7.68,21.8688462 C7.79076923,21.9796154 7.90153846,22.035 8.03076923,22.0719231 C7.93846154,22.0903846 7.86461538,22.1273077 7.77230769,22.1273077 Z M9.17538462,21.2226923 C9.17538462,21.0011538 9.08307692,20.7980769 8.91692308,20.6319231 L3.34153846,15.0565385 C3.19384615,14.9088462 2.99076923,14.835 2.78769231,14.8165385 L11.7969231,5.80730769 L18.1846154,12.195 L9.17538462,21.2226923 Z M21.6369231,8.72423077 L19.5507692,10.8288462 L13.1630769,4.44115385 L15.2676923,2.33653846 C15.9692308,1.635 17.1138462,1.635 17.8153846,2.33653846 L21.6369231,6.17653846 C22.3384615,6.87807692 22.3384615,8.02269231 21.6369231,8.72423077 Z" id="形状"></path>
            </g>
        </g>
    </g>
</svg>

<svg width="24" height="24" xmlns="http://www.w3.org/2000/svg"><path d="M22.91 4.903l-3.82-3.84c-1.404-1.403-3.693-1.403-5.115 0L.683 14.373A2.396 2.396 0 000 16.035v6.11c0 1.22.628 1.847 1.846 1.847l6.166-.037c.628 0 1.219-.258 1.643-.683L22.911 9.98c1.421-1.385 1.421-3.674 0-5.077zM7.773 22.127l-5.926.037v-5.889c0-.11.037-.222.056-.332.036.129.11.24.203.35L7.68 21.87c.11.11.222.166.35.203-.092.018-.165.055-.258.055zm1.403-.904a.827.827 0 00-.258-.591l-5.575-5.575a.89.89 0 00-.554-.24l9.009-9.01 6.388 6.388-9.01 9.028zM21.637 8.724L19.55 10.83 13.163 4.44l2.105-2.104a1.805 1.805 0 012.547 0l3.822 3.84a1.805 1.805 0 010 2.547z"/></svg>
